X:5292
T:Puddleglums Misery
O:england
M:4/4
L:1/8
Q:100
C:John Kirkpatrick
K:C
|:(3G^F=F|"E7"E2 e2 ^d2 =d2|"Am"c>BA>B c2 B>A|"E7"^G>EG>B e>BG>E|"Am"A>E
A>c e>cA>c|
"E7"E2e2^d2=d2|"Am"c>BA>B "F"c2 B>A|"E7"^G>EG>B e>dc>B|"Am"A2A2A2:|
|:(3cBA|"G7"G2 g2 ^f2 =f2|"C"e>dc>d e2 d>c|"G"B>GB>d g>dB>d|"C"c>Bc>d e>
dc>A|
"G"G2 g2 ^f2 =f2|"C"e>dc>de4|"E7"(3EFE ^D>E e>dc>B|"Am"A2 A2 A2:|


